sources/images/svg/arrow3.svg

<?xml version="1.0" encoding="UTF-8" standalone="no"?>
<svg width="25px" height="25px" viewBox="0 0 25 25" version="1.1" xmlns="http://www.w3.org/2000/svg" xmlns:xlink="http://www.w3.org/1999/xlink" xmlns:sketch="http://www.bohemiancoding.com/sketch/ns">
    <!-- Generator: Sketch 3.0.4 (8053) - http://www.bohemiancoding.com/sketch -->
    <title>arrow</title>
    <desc>Created with Sketch.</desc>
    <defs></defs>
    <g id="Page-1" stroke="none" stroke-width="1" fill="none" fill-rule="evenodd" sketch:type="MSPage">
        <g id="arrow" sketch:type="MSLayerGroup" fill="#C6CDD2">
            <path d="M10,7.707 L14.943,12.65 L15.65,11.943 C15.65,11.943 13.685569,9.97856901 12.7033535,8.99635352 L10.707,7 L10,7.707 Z" id="Imported-Layers" sketch:type="MSShapeGroup"></path>
            <path d="M10,11.707 L14.943,16.65 L15.65,15.943 C15.65,15.943 13.685569,13.978569 12.7033535,12.9963535 L10.707,11 L10,11.707 Z" id="Imported-Layers-2" sketch:type="MSShapeGroup" transform="translate(13.000000, 14.000000) scale(1, -1) translate(-13.000000, -14.000000) "></path>
            <path d="M22.145,12.073 C22.145,17.6357153 17.6357153,22.145 12.073,22.145 C6.51006607,22.145 2,17.6354966 2,12.073 C2,6.51028475 6.51028475,2 12.073,2 L12.073,0 C5.40571525,0 0,5.40571525 0,12.073 C0,18.740122 5.40555243,24.145 12.073,24.145 C18.7402847,24.145 24.145,18.7402847 24.145,12.073 C24.145,5.40555243 18.740122,0 12.073,0 L12.073,2 C17.6354966,2 22.145,6.51006607 22.145,12.073 Z" id="Imported-Layers" sketch:type="MSShapeGroup"></path>
        </g>
    </g>
</svg>

<svg width="25" height="25" viewBox="0 0 25 25" xmlns="http://www.w3.org/2000/svg"><g id="arrow" fill="#C6CDD2" fill-rule="evenodd"><path d="M10 7.707l4.943 4.943.707-.707s-1.964-1.964-2.947-2.947L10.707 7 10 7.707z" id="Imported-Layers"/><path d="M10 16.293l4.943-4.943.707.707s-1.964 1.964-2.947 2.947L10.707 17 10 16.293z" id="Imported-Layers-2"/><path d="M22.145 12.073c0 5.563-4.51 10.072-10.072 10.072C6.51 22.145 2 17.635 2 12.073 2 6.51 6.51 2 12.073 2V0C5.406 0 0 5.406 0 12.073c0 6.667 5.406 12.072 12.073 12.072 6.667 0 12.072-5.405 12.072-12.072C24.145 5.406 18.74 0 12.073 0v2c5.562 0 10.072 4.51 10.072 10.073z" id="Imported-Layers"/></g></svg>
